assets/img/base/logo-vk.svg

<svg width="33" height="20" viewBox="0 0 33 20" fill="none" xmlns="http://www.w3.org/2000/svg">
<path fill-rule="evenodd" clip-rule="evenodd" d="M31.3497 1.26301C31.58 0.550812 31.3497 0.033076 30.331 0.033076H26.9438C26.0894 0.033076 25.6949 0.486411 25.4646 0.971314C25.4646 0.971314 23.7222 5.1132 21.289 7.79848C20.4999 8.57509 20.1383 8.83395 19.7108 8.83395C19.4806 8.83395 19.1843 8.57509 19.1843 7.86352V1.22955C19.1843 0.388546 18.9217 0.000244141 18.198 0.000244141H12.8711C12.3446 0.000244141 12.016 0.388546 12.016 0.776848C12.016 1.58565 13.2326 1.78012 13.3639 4.0449V8.96591C13.3639 10.0336 13.1699 10.2287 12.7391 10.2287C11.5885 10.2287 8.79374 6.0546 7.11728 1.29837C6.7913 0.356345 6.46014 0.000244141 5.60509 0.000244141H2.18554C1.1992 0.000244141 1.03491 0.452947 1.03491 0.938483C1.03491 1.81232 2.18554 6.21244 6.39417 12.0363C9.18893 16.0141 13.1673 18.1519 16.7511 18.1519C18.9217 18.1519 19.1843 17.6664 19.1843 16.8576V13.8484C19.1843 12.878 19.3816 12.7163 20.0724 12.7163C20.5652 12.7163 21.4533 12.9746 23.4589 14.8839C25.7602 17.1487 26.1547 18.1841 27.4373 18.1841H30.8239C31.8102 18.1841 32.2707 17.6986 32.0075 16.7604C31.7119 15.8221 30.5936 14.4634 29.1468 12.8458C28.3577 11.9404 27.1741 10.9371 26.8125 10.4516C26.3197 9.80439 26.451 9.54553 26.8125 8.96339C26.7795 8.96339 30.9228 3.20389 31.3497 1.26049" fill="white"/>
</svg>

<svg width="33" height="20" fill="none" xmlns="http://www.w3.org/2000/svg"><path fill-rule="evenodd" clip-rule="evenodd" d="M31.35 1.263c.23-.712 0-1.23-1.019-1.23h-3.387c-.855 0-1.25.453-1.48.938 0 0-1.742 4.142-4.175 6.827-.79.777-1.15 1.036-1.578 1.036-.23 0-.527-.259-.527-.97V1.23c0-.841-.262-1.23-.986-1.23h-5.327c-.526 0-.855.389-.855.777 0 .809 1.217 1.003 1.348 3.268v4.92c0 1.069-.194 1.264-.625 1.264-1.15 0-3.945-4.174-5.622-8.93C6.791.355 6.46 0 5.605 0h-3.42c-.986 0-1.15.453-1.15.938 0 .874 1.15 5.274 5.36 11.098 2.794 3.978 6.772 6.116 10.356 6.116 2.17 0 2.433-.486 2.433-1.294v-3.01c0-.97.198-1.132.888-1.132.493 0 1.381.259 3.387 2.168 2.301 2.265 2.696 3.3 3.978 3.3h3.387c.986 0 1.447-.485 1.183-1.424-.295-.938-1.413-2.297-2.86-3.914-.79-.906-1.973-1.909-2.334-2.394-.493-.648-.362-.906 0-1.489-.034 0 4.11-5.76 4.537-7.703" fill="#fff"/></svg>
